ocean/assets/images/icon_volume_2@1x.svg

<svg fill="none" height="120" viewBox="0 0 120 120" width="120" xmlns="http://www.w3.org/2000/svg"><path d="m34.7012 68.2227h6.6386c.3438 0 .5801.0859.795.3007l10.3125 9.1524c.5371.4941 1.0957.8379 1.7617.8379.9668 0 1.5254-.709 1.5254-1.6328v-32.7422c0-.9239-.5586-1.6973-1.5469-1.6973-.666 0-1.1602.3867-1.7402.8809l-10.3125 9.3672c-.2149.1933-.4512.2578-.795.2578h-6.6386c-2.041 0-3.0078 1.0312-3.0078 3.0937v9.1309c0 2.084.9882 3.0508 3.0078 3.0508zm.0429-1.5039c-1.0957 0-1.4609-.4083-1.4609-1.4825v-9.2597c0-1.0957.3652-1.5039 1.4609-1.5039h6.7676c.6445 0 1.0957-.086 1.6113-.5801l10.1407-9.2813c.1718-.1504.3222-.3008.5371-.3008.2148 0 .3652.1504.3652.4083v31.496c0 .2793-.1504.4297-.3437.4297-.1504 0-.2793-.0644-.5371-.2793l-10.1622-9.0879c-.4941-.4296-.9668-.5585-1.6113-.5585zm36.545 8.3144c.3867.2578.8379.1719 1.1171-.1934 2.75-3.5878 4.5333-8.9375 4.5333-14.3515 0-5.4356-1.7618-10.7852-4.5333-14.3516-.2792-.3652-.7304-.4512-1.1171-.1933-.3653.2578-.4297.7304-.1289 1.1386 2.707 3.6309 4.2109 8.3575 4.2109 13.4063s-1.5039 9.7754-4.2109 13.3847c-.3008.4297-.2364.8809.1289 1.1602zm-6.961-5.6934c.3653.2579.8164.1719 1.0957-.1933 1.6328-2.127 2.7715-5.1348 2.7715-8.6582 0-3.5235-1.1387-6.5313-2.7715-8.6582-.2793-.3867-.7304-.4512-1.0957-.1934-.3867.2793-.4511.752-.1504 1.1817 1.6543 2.2773 2.4493 4.6406 2.4493 7.6699s-.795 5.3926-2.4493 7.6699c-.3007.4297-.2363.9023.1504 1.1816z" fill="#fff"/><circle cx="60" cy="60" r="59.5" stroke="#1a1a1a"/></svg>

<svg width="120" height="120" viewBox="0 0 120 120" fill="none" xmlns="http://www.w3.org/2000/svg">
<path d="M34.7012 68.2227H41.3398C41.6836 68.2227 41.9199 68.3086 42.1348 68.5234L52.4473 77.6758C52.9844 78.1699 53.543 78.5137 54.209 78.5137C55.1758 78.5137 55.7344 77.8047 55.7344 76.8809V44.1387C55.7344 43.2148 55.1758 42.4414 54.1875 42.4414C53.5215 42.4414 53.0273 42.8281 52.4473 43.3223L42.1348 52.6895C41.9199 52.8828 41.6836 52.9473 41.3398 52.9473H34.7012C32.6602 52.9473 31.6934 53.9785 31.6934 56.041V65.1719C31.6934 67.2559 32.6816 68.2227 34.7012 68.2227ZM34.7441 66.7188C33.6484 66.7188 33.2832 66.3105 33.2832 65.2363V55.9766C33.2832 54.8809 33.6484 54.4727 34.7441 54.4727H41.5117C42.1562 54.4727 42.6074 54.3867 43.123 53.8926L53.2637 44.6113C53.4355 44.4609 53.5859 44.3105 53.8008 44.3105C54.0156 44.3105 54.166 44.4609 54.166 44.7188V76.2148C54.166 76.4941 54.0156 76.6445 53.8223 76.6445C53.6719 76.6445 53.543 76.5801 53.2852 76.3652L43.123 67.2773C42.6289 66.8477 42.1562 66.7188 41.5117 66.7188H34.7441ZM71.2891 75.0332C71.6758 75.291 72.127 75.2051 72.4062 74.8398C75.1562 71.252 76.9395 65.9023 76.9395 60.4883C76.9395 55.0527 75.1777 49.7031 72.4062 46.1367C72.127 45.7715 71.6758 45.6855 71.2891 45.9434C70.9238 46.2012 70.8594 46.6738 71.1602 47.082C73.8672 50.7129 75.3711 55.4395 75.3711 60.4883C75.3711 65.5371 73.8672 70.2637 71.1602 73.873C70.8594 74.3027 70.9238 74.7539 71.2891 75.0332ZM64.3281 69.3398C64.6934 69.5977 65.1445 69.5117 65.4238 69.1465C67.0566 67.0195 68.1953 64.0117 68.1953 60.4883C68.1953 56.9648 67.0566 53.957 65.4238 51.8301C65.1445 51.4434 64.6934 51.3789 64.3281 51.6367C63.9414 51.916 63.877 52.3887 64.1777 52.8184C65.832 55.0957 66.627 57.459 66.627 60.4883C66.627 63.5176 65.832 65.8809 64.1777 68.1582C63.877 68.5879 63.9414 69.0605 64.3281 69.3398Z" fill="white"/>
<circle cx="60" cy="60" r="59.5" stroke="#1A1A1A"/>
</svg>
